icons/camera.svg

<svg width="24" height="24" viewBox="0 0 24 24" fill="none" xmlns="http://www.w3.org/2000/svg">
<path fill-rule="evenodd" clip-rule="evenodd" d="M8.29289 3.29289C8.48043 3.10536 8.73478 3 9 3H15C15.2652 3 15.5196 3.10536 15.7071 3.29289L18.4142 6H22C22.5523 6 23 6.44772 23 7V20C23 20.5523 22.5523 21 22 21H2C1.44772 21 1 20.5523 1 20V7C1 6.44772 1.44772 6 2 6H5.58579L8.29289 3.29289ZM9.41421 5L6.70711 7.70711C6.51957 7.89464 6.26522 8 6 8H3V19H21V8H18C17.7348 8 17.4804 7.89464 17.2929 7.70711L14.5858 5H9.41421ZM12 11C10.8954 11 10 11.8954 10 13C10 14.1046 10.8954 15 12 15C13.1046 15 14 14.1046 14 13C14 11.8954 13.1046 11 12 11ZM8 13C8 10.7909 9.79086 9 12 9C14.2091 9 16 10.7909 16 13C16 15.2091 14.2091 17 12 17C9.79086 17 8 15.2091 8 13Z" fill="black"/>
</svg>

<svg
  width="24"
  height="24"
  viewBox="0 0 24 24"
  xmlns="http://www.w3.org/2000/svg"
>
  <path
    fill-rule="evenodd"
    clip-rule="evenodd"
    d="M8.293 3.293A1 1 0 0 1 9 3h6a1 1 0 0 1 .707.293L18.414 6H22a1 1 0 0 1 1 1v13a1 1 0 0 1-1 1H2a1 1 0 0 1-1-1V7a1 1 0 0 1 1-1h3.586l2.707-2.707zM9.414 5L6.707 7.707A1 1 0 0 1 6 8H3v11h18V8h-3a1 1 0 0 1-.707-.293L14.586 5H9.414zM12 11a2 2 0 1 0 0 4 2 2 0 0 0 0-4zm-4 2a4 4 0 1 1 8 0 4 4 0 0 1-8 0z"
  />
</svg>
